!!!COM: Palestrina, Giovanni Perluigi da
!!!OPR: Missa Quem dicunt homines
!!!OMD: Benedictus
!!!OTL: First Section
**kern	**kern	**kern	**kern
*Ibass	*Itenor	*Icalto	*Icalto
!Bassus	!Tenor	!Altus 2	!Altus 1
*clefF4	*clefGv2	*clefG2	*clefG2
*k[]	*k[]	*k[]	*k[]
*C:ion	*C:ion	*C:ion	*C:ion
*M4/2	*M4/2	*M4/2	*M4/2
=1	=1	=1	=1
0r	0r	0r	1.d
.	.	.	2d
=2	=2	=2	=2
0r	1r	0r	1d
.	[1G	.	2d
.	.	.	2d
=3	=3	=3	=3
0r	2G]	0r	1e
.	2G	.	.
.	1G	.	1d
=4	=4	=4	=4
0r	2G	0r	2r
.	2G	.	2g
.	1A	.	2e
.	.	.	2f#
=5	=5	=5	=5
0r	1G	0r	2.g
.	.	.	4f
.	2r	.	4e
.	.	.	4d
.	2c	.	[2e
=6	=6	=6	=6
0r	2A	0r	4e]
.	.	.	4c
.	2B	.	2d
.	[1c	.	[1e
=7	=7	=7	=7
1.G	2c]	0r	2e]
.	4B	.	4d
.	4A	.	4c
.	2.B	.	1d
2G	.	.	.
.	4c	.	.
=8	=8	=8	=8
1G	2d	1r	2.B
.	4G	.	.
.	4A	.	4c
2G	4B	2r	2d
.	4c	.	.
2G	[2d	2g	2B
=9	=9	=9	=9
1A	4d]	2e	1c
.	4c	.	.
.	1c	2f#	.
1G	.	2.g	1d
.	2B	.	.
.	.	4f	.
=10	=10	=10	=10
2r	1c	4e	1c
.	.	4d	.
2c	.	2e	.
2A	1r	2c	2r
2B	.	2d	[2g
=11	=11	=11	=11
1.c	2r	1e	2g]
.	2c	.	2e
.	2A	1r	2f#
2G	2B	.	[2g
=12	=12	=12	=12
1A	1c	1r	4g]
.	.	.	4f#
.	.	.	4f#
.	.	.	8e
.	.	.	8f#
[1G	[1B	[1d	2g
.	.	.	4G
.	.	.	4A
=13	=13	=13	=13
2G]	2B]	2d]	4B
.	.	.	4c
4F	4A	2d	4d
4E	4G	.	4e
[1D	[1A	1d	4f
.	.	.	4e
.	.	.	4d
.	.	.	4e
=14	=14	=14	=14
2D]	1A]	2d	4f
.	.	.	4g
2F	.	2d	2.a
2E	2B	1e	.
.	.	.	4g
2C	2c	.	[2g
=15	=15	=15	=15
1D	1A	1.d	2g]
.	.	.	2f#
1G	2r	.	[1g
.	2B	2d	.
=16	=16	=16	=16
2r	1c	2.e	1g]
2C	.	.	.
.	.	4f	.
2E	2B	2g	1r
2F	2A	4f	.
.	.	4e	.
=17	=17	=17	=17
4G	2.B	2d	2r
4F	.	.	.
4G	.	1d	1g
4A	4A	.	.
2B	2G	.	.
[2c	2C	2e	2g
=18	=18	=18	=18
2c]	1G	1d	1g
2B	.	.	.
1c	2r	1e	2g
.	2C	.	2g
=19	=19	=19	=19
1C	2G	0r	1e
.	2A	.	.
[1G	2.B	.	2d
.	.	.	2G
.	4c	.	.
=20	=20	=20	=20
2G]	2d	0r	2B
2C	2e	.	2c
1G	2.B	.	4d
.	.	.	4c
.	.	.	4d
.	4c	.	4e
=21	=21	=21	=21
0r	2d	1r	2f
.	2B	.	2.g
.	2.c	2r	.
.	.	.	4f
.	.	2c	[2e
.	4B	.	.
=22	=22	=22	=22
1r	1A	2e	2e]
.	.	2f	4d
.	.	.	4c
2r	1G	[1g	2B
2C	.	.	[2e
=23	=23	=23	=23
2E	1r	2g]	2e]
2F	.	4f	4d
.	.	4e	4c
4G	2r	1d	2.B
4F	.	.	.
4G	2G	.	.
4A	.	.	4c
=24	=24	=24	=24
2B	2G	1g	2d
1c	2C	.	2e
.	1G	2r	1d
2B	.	2d	.
=25	=25	=25	=25
1c	2r	2.e	1c
.	2C	.	.
.	.	4f	.
1r	2E	2g	1r
.	2F	4c	.
.	.	4d	.
=26	=26	=26	=26
2r	4G	4e	0r
.	4F	4d	.
2G	4G	4B	.
.	4A	4c	.
2G	2B	2d	.
2C	[2c	2e	.
=27	=27	=27	=27
1G	2c]	1d	2r
.	2B	.	2G
2E	2.G	1r	2B
2C	.	.	2c
.	4A	.	.
=28	=28	=28	=28
2.G	2.B	0r	4d
.	.	.	4c
.	.	.	4d
8F	4c	.	4e
8E	.	.	.
[1D	2d	.	2f
.	2B	.	[2g
=29	=29	=29	=29
1D]	1A	1.d	2g]
.	.	.	2f#
2r	1G	.	1g
2G	.	2B	.
=30	=30	=30	=30
2E	0r	2c	1r
2F	.	2.d	.
2.G	.	.	2r
.	.	4c	.
.	.	4B	2G
4F	.	4A	.
=31	=31	=31	=31
4E	2r	1G	2B
4D	.	.	.
2C	2G	.	2c
[1G	2.B	2r	1d
.	.	2G	.
.	4c	.	.
=32	=32	=32	=32
2G]	2d	2B	1g
2E	2G	2c	.
[1D	2A	4d	2.f
.	.	4c	.
.	[2d	4d	.
.	.	4e	4e
=33	=33	=33	=33
0D]	4d]	2f#	1.d
.	4c	.	.
.	4B	1g	.
.	8A	.	.
.	8G	.	.
.	2A	.	.
.	2A	2f#	2d
=34	=34	=34	=34
0G	0B	0g	0d
*-	*-	*-	*-
!!!CDT: 1525/^1526/-1594/2/2
!!!OCY: Italia
!!!AGN: Mass (Parody)
!!!AST: renaissance, vocal
!!!ASW: Motet 1532 (Richafort)
!!!PWK: Masses, Book 8
!!!RNB: Cadence finals: G
!!!YOR: Le Opere Complete, v. 24, p. 1
!!!YOO: Rome, Italy: Fratelli Scalera
!!!END: 1992//
!!!EED: John Miller
!!!YEC: Copyright 2000, John Miller
!!!YEN: United States of America
!!!YEM: Rights to all derivative electronic formats reserved.
!!!YEM: Refer to licensing agreement for further details.
!!!YEM: This file must be accompanied by the licensing agreement.
!!!YEM: A copy of the licensing agreement may be found at http://www.music-cog.ohio-state.edu/HumdrumDatabases/Palestrina/license.txt
!!!EMD: converted to Humdrum by Bret Aarden
